X: 328
T: Liao gege
L: 1/8
M: 2/4
K: Bb
d'f'2g' [I:setbarnb 1]| 
f'2d' c' | 
f'c'2b | 
gf3 | 
gb2c' | 
f'2g' d' | 
f2c'/ d'/ c'/ b/ | 
c' d' b g | 
f2b c' | 
f'2d' f' | 
c' d' b g | 
ff2b | 
c' d' b g | 
f4 |]

@@@ Tune index: 9202
